assets/images/book-img3.svg

<svg width="50" height="50" viewBox="0 0 50 50" fill="none" xmlns="http://www.w3.org/2000/svg">
<path d="M50 35.2912C50 35.5675 49.8903 35.8324 49.6949 36.0278C49.4996 36.2231 49.2346 36.3329 48.9583 36.3329H46.5271C44.9604 36.3329 43.4062 36.8496 42.1521 37.7912L29.4604 47.3079C28.1813 48.2998 26.6081 48.8371 24.9895 48.8348C23.3709 48.8325 21.7992 48.2909 20.5229 47.2954L7.84583 37.7912C6.58234 36.8472 5.04807 36.3357 3.47083 36.3329H1.04167C0.765399 36.3329 0.500447 36.2231 0.305097 36.0278C0.109747 35.8324 0 35.5675 0 35.2912C0 35.015 0.109747 34.75 0.305097 34.5547C0.500447 34.3593 0.765399 34.2496 1.04167 34.2496H3.47292C5.48958 34.2496 7.48542 34.9141 9.09583 36.1225L21.7875 45.6391C23.6833 47.1183 26.3146 47.1121 28.1979 45.6516L40.9042 36.1225C41.3521 35.7871 41.8292 35.4954 42.3292 35.2454L27.1646 23.8746L24.4333 26.4891C23.4601 27.4582 22.1421 28.0015 20.7687 27.9996C19.9387 27.9929 19.1217 27.7913 18.3839 27.411C17.646 27.0306 17.0078 26.4822 16.5208 25.81C15.0562 23.7766 15.3646 20.8266 17.2438 18.9496L23.5542 13.0079L21.5 11.1371C19.2792 9.11623 15.8104 8.75581 13.3 10.0141L8.47708 12.4266C7.17434 13.0759 5.73891 13.4146 4.28333 13.4162H1.04167C0.765399 13.4162 0.500447 13.3065 0.305097 13.1111C0.109747 12.9158 0 12.6508 0 12.3746C0 12.0983 0.109747 11.8333 0.305097 11.638C0.500447 11.4426 0.765399 11.3329 1.04167 11.3329H4.28333C5.40833 11.3329 6.5375 11.0662 7.54375 10.5641L12.3667 8.15165C13.6624 7.50408 15.091 7.16672 16.5396 7.16623C18.8902 7.15032 21.1611 8.01806 22.9021 9.59748L25.0729 11.5766L27.0625 9.70373C29.8521 7.07873 34.2229 6.44331 37.6312 8.15165L42.4542 10.5641C43.4673 11.0681 44.5831 11.3312 45.7146 11.3329H48.9562C49.2325 11.3329 49.4975 11.4426 49.6928 11.638C49.8882 11.8333 49.9979 12.0983 49.9979 12.3746C49.9979 12.6508 49.8882 12.9158 49.6928 13.1111C49.4975 13.3065 49.2325 13.4162 48.9562 13.4162H45.7146C44.259 13.4144 42.8237 13.0757 41.5208 12.4266L36.6979 10.0141C34.0479 8.68498 30.6542 9.18081 28.4896 11.2204L18.6917 20.4454C17.55 21.5871 17.3354 23.3787 18.2104 24.5933C18.7667 25.3641 19.5833 25.8308 20.5125 25.9058C21.4208 25.9725 22.325 25.6516 22.975 24.9996L31.6521 16.6933C31.751 16.5988 31.8675 16.5247 31.9951 16.4752C32.1226 16.4257 32.2587 16.4018 32.3954 16.4049C32.5322 16.408 32.667 16.438 32.7922 16.4932C32.9174 16.5484 33.0305 16.6277 33.125 16.7266C33.2195 16.8255 33.2936 16.9421 33.3431 17.0696C33.3926 17.1972 33.4165 17.3332 33.4134 17.47C33.4103 17.6068 33.3803 17.7416 33.3251 17.8668C33.2699 17.992 33.1906 18.105 33.0917 18.1996L28.6896 22.4141L44.7125 34.4308C45.31 34.311 45.9177 34.2503 46.5271 34.2496H48.9583C49.2346 34.2496 49.4996 34.3593 49.6949 34.5547C49.8903 34.75 50 35.015 50 35.2912Z" fill="#004B98"/>
</svg>

<svg width="50" height="50" fill="none" xmlns="http://www.w3.org/2000/svg"><path d="M50 35.291a1.042 1.042 0 0 1-1.042 1.042h-2.43c-1.568 0-3.122.517-4.376 1.458L29.46 47.308a7.279 7.279 0 0 1-8.937-.013L7.846 37.791a7.331 7.331 0 0 0-4.375-1.458H1.04a1.042 1.042 0 0 1 0-2.083h2.432c2.017 0 4.012.664 5.623 1.873l12.692 9.516a5.21 5.21 0 0 0 6.41.013l12.706-9.53a9.348 9.348 0 0 1 1.425-.877l-15.164-11.37-2.732 2.614A5.183 5.183 0 0 1 20.77 28a5.299 5.299 0 0 1-4.248-2.189c-1.465-2.033-1.156-4.983.723-6.86l6.31-5.942-2.054-1.87c-2.22-2.022-5.69-2.382-8.2-1.124l-4.823 2.413a9.425 9.425 0 0 1-4.194.99H1.042a1.041 1.041 0 1 1 0-2.084h3.241a7.346 7.346 0 0 0 3.26-.769l4.824-2.412a9.341 9.341 0 0 1 4.173-.986 9.375 9.375 0 0 1 6.362 2.431l2.17 1.98 1.99-1.873c2.79-2.625 7.16-3.26 10.57-1.552l4.822 2.412a7.345 7.345 0 0 0 3.26.769h3.242a1.041 1.041 0 1 1 0 2.083h-3.241a9.43 9.43 0 0 1-4.194-.99l-4.823-2.412c-2.65-1.329-6.044-.833-8.208 1.206l-9.798 9.225c-1.142 1.142-1.357 2.934-.482 4.148a3.114 3.114 0 0 0 2.302 1.313A3.148 3.148 0 0 0 22.976 25l8.677-8.307a1.042 1.042 0 0 1 1.44 1.507l-4.402 4.214 16.022 12.017a9.284 9.284 0 0 1 1.815-.181h2.431A1.041 1.041 0 0 1 50 35.29Z" fill="#004B98"/></svg>
